!!!COM: Bohuslav (Jan) Martinů
!!!OTL: [T482_Mau-54/16/1-7]
**kern	**dynam	**kern	**dynam	**kern	**dynam
*grp:A	*grp:A	*grp:B	*grp:B	*grp:B	*grp:B
*part3	*part3	*part2	*part2	*part1	*part1
*staff3	*	*staff2	*	*staff1	*
*I"Bassoon	*	*I"Clarinet in C	*	*I"Oboe	*
*I'Bsn.	*	*I'Cl.	*	*I'Ob.	*
!!pagebreak:original
*clefF4	*	*clefG2	*	*clefG2	*
*k[]	*	*k[]	*	*k[]	*
*C:	*	*C:	*	*C:	*
*M3/8	*	*M3/8	*	*M3/8	*
=1	=1	=1	=1	=1	=1
!	!	!	!	!LO:TX:a:B:t=Poco allegretto [[eighth]=190]	!
8%3ryy	.	8%3r	.	4ccTT	p
.	.	.	.	8a'>	.
=2	=2	=2	=2	=2	=2
*M4/8	*	*M4/8	*	*M4/8	*
2ryy	.	2r	.	(4ccTT	.
.	.	.	.	8a'>)	.
.	.	.	.	8cc'>	.
=3	=3	=3	=3	=3	=3
*M3/8	*	*M3/8	*	*M3/8	*
8%3ryy	.	8r	.	4ccTT	.
.	.	(8qg/	p <	.	.
.	.	8f'>L)	.	.	.
.	.	8g'>J	[	8a'>	.
=4	=4	=4	=4	=4	=4
*M4/8	*	*M4/8	*	*M4/8	*
2ryy	.	(4gTT	>	(4ccTT	.
.	.	8f'>)	.	8a'>)	.
.	.	(8qa/	]	.	.
.	.	8g'>)	.	8cc'>	.
=5	=5	=5	=5	=5	=5
*M7/8	*	*M7/8	*	*M7/8	*
8ryy	.	8r	.	4ccTT	.
.	.	(8qg/	<	.	.
8ryy	4ryy	8f'>L)	.	.	.
8ryy	4ryy	8g'>J	.	8a	.
8ryy	.	(4gTT	[ >	(4ccTT	<
!LO:TX:b:i:t=(poco)	!	!	!	!	!
8ryy	4ryy	.	.	.	.
8ryy	.	.	.	.	.
8r'yy	.	8fL)	.	8a'L)	.
.	.	(8qa/	]	.	.
!LO:TX:t=P:problem: cross-measure beaming still needs to be applied.	!	!	!	!	!
8ryy	.	8g'>J)	.	8ff'J	[
!!linebreak:original
=6	=6	=6	=6	=6	=6
!	!	!	!	!	!LO:DY:t=poco %s
8ryy	4ryy	8r	.	4ffTT	mf
.	.	(8qg/	<	.	.
8ryy	.	8f'>L)	.	.	.
8ryy	4ryy	.	.	.	.
8ryy	.	8g'>J	.	8cc'	.
8r'yy	.	(4gTT	[ >	(4ffTT	.
8ryy	4ryy	.	.	.	.
8ryy	.	8fL	.	8ee'L)	.
.	.	(8qa/	]	.	.
8ryy	.	8g'>J))	.	8cc'J	.
=7	=7	=7	=7	=7	=7
8ryy	4ryy	.	.	.	.
8ryy	.	8r	.	4dd~	<
.	.	(8qg/	<	.	.
8r'yy	.	8f'>L)	.	.	.
8ryy	4ryy	8g'>J	.	4ee~	[
8ryy	.	(4gTT	[ >	.	.
8ryy	.	.	.	8r	.
8ryy	4ryy	.	.	.	.
*	*	*	*	*^	*
8ryy	.	8fL)	.	8ryy@	(8ffTT>L	.
.	.	.	.	16qff/LL	.	.
.	.	.	.	16qgg/	.	.
.	.	(8qa/	]	16qff/JJ	.	.
8r'yy	.	8g'>J)	.	8ryy@	8dd'J)	.
*	*	*	*	*v	*v	*
=||	=||	=||	=||	=||	=||
*-	*-	*-	*-	*-	*-
!!!system-decoration: [(s1,s2,s3)]
!!!RDF**kern: > = above
!!!RDF**kern: < = below
!!!EED: Daniel Wright
!!!EED2: Rafael Laurindo
!!!EEV2: 2022/02/05
